Adwaita++-Dark/actions/16/appointment-new.svg

<svg height="16" width="16" xmlns="http://www.w3.org/2000/svg">
  <g fill="#e6ddff">
    <path d="m2 1c-1 0-1 1-1 1v12c0 1 1 1 1 1h7v-2h-6v-.84-1.66-4.5h10v3h2v-7c0-1-1-1-1-1z"/>
    <path d="m12 10v2h-2v2h2v2h2v-2h2v-2h-2v-2z"/>
  </g>
</svg>

<svg xmlns="http://www.w3.org/2000/svg" width="16" height="16" version="1.1">
 <path style="fill:#E6DDFF" d="M 2,1 C 1,1 1,2 1,2 V 14 C 1,15 2,15 2,15 H 9 V 13 H 3 V 12.16 10.5 6 H 13 V 9 H 15 V 2 C 15,1 14,1 14,1 Z"/>
 <path style="fill:#E6DDFF" d="M 12,10 V 12 H 10 V 14 H 12 V 16 H 14 V 14 H 16 V 12 H 14 V 10 Z"/>
</svg>
